!!!OTL: MACHT MAN INS LEBEN KAUM DEN ERSTEN SCHRITT
!!!ARE: Europa, Mitteleuropa, Deutschland, Westerwald; Dillkreis
!!!SCT: B0672
!!!YEM: Copyright 1995, estate of Helmut Schaffrath.
**kern
*ICvox
*Ivox
*M4/4
*k[f#]
*G:
{8d
8g
8b
=1
4.dd
8ee
8dd
8a
8dd
8cc
=2
4b
4.r}
{8b
8cc
8b
=3
4.e
8a
8g
8f#
8e
8f#
=4
4g
4.r}
{8d
8g
8b
=5
4.dd
8ee
8dd
8a
8dd
8cc
=6
4b
4.r}
{8b
8cc
8b
=7
4.e
8a
8g
8f#
8e
8f#
=8
4g
4.r}
{8e
8e
8f#
=9
4.g
8g
8f#
8g
8a
8e
=10
4f#
4.r}
{8d
8f#
8a
=11
4.dd
8ee
8dd
8a
8dd
8cc
=12
4b
4.r}
{8d
8d
8d
=13
4.g
8g
8g
8b
8dd
8dd
=14
4ee
4.r}
{8gg
8dd
8b
=15
8a
8cc
4ee
8r
8d
8b
8a
=16
2g
8r}
==
!!!AGN: Moral - Lied, Lebenslauf, Klage
!!!ONB: ESAC (Essen Associative Code) Database: BOEHME
!!!AMT: simple quadruple
!!!AIN: vox
!!!EED: Helmut Schaffrath
!!!EEV: 1.0
*-
